static/logos/counfluence-glyph-color.svg

<svg width="50" height="48" viewBox="0 0 50 48" fill="none" xmlns="http://www.w3.org/2000/svg">
<g clip-path="url(#clip0_1_3160)">
<path d="M2.5225 36.3516C2.01469 37.1797 1.44437 38.1407 0.959999 38.9063C0.751584 39.2585 0.689664 39.6783 0.787539 40.0757C0.885421 40.4731 1.13529 40.8161 1.48344 41.0313L11.6397 47.2813C11.8162 47.3902 12.0126 47.4629 12.2174 47.4952C12.4224 47.5275 12.6317 47.5186 12.8331 47.4692C13.0345 47.4197 13.2241 47.3307 13.3907 47.2072C13.5574 47.0837 13.6978 46.9283 13.8038 46.75C14.21 46.0703 14.7335 45.1875 15.3038 44.2422C19.3272 37.6016 23.3741 38.4141 30.671 41.8985L40.7413 46.6875C40.93 46.7774 41.1349 46.8284 41.3438 46.8376C41.5527 46.8468 41.7613 46.8141 41.9572 46.7412C42.1531 46.6684 42.3325 46.557 42.4846 46.4135C42.6367 46.2701 42.7585 46.0976 42.8428 45.9063L47.6788 34.9688C47.843 34.5933 47.8531 34.1683 47.707 33.7854C47.5608 33.4026 47.2701 33.0925 46.8975 32.9219C44.7725 31.9219 40.546 29.9297 36.7413 28.0938C23.0538 21.4453 11.421 21.875 2.5225 36.3516Z" fill="url(#paint0_linear_1_3160)"/>
<path d="M48.0607 11.5312C48.5685 10.7031 49.1388 9.74214 49.6232 8.97651C49.8315 8.62433 49.8935 8.20441 49.7956 7.80705C49.6977 7.40969 49.4478 7.0666 49.0997 6.85151L38.9435 0.601503C38.7657 0.481746 38.5651 0.399859 38.3543 0.360934C38.1435 0.322009 37.9269 0.326881 37.7181 0.375245C37.5092 0.423609 37.3125 0.514433 37.1403 0.642063C36.9681 0.769695 36.8239 0.931406 36.7169 1.11712C36.3107 1.79681 35.7872 2.67962 35.2169 3.62494C31.1935 10.2656 27.1466 9.45308 19.8497 5.96869L9.81066 1.20306C9.62183 1.11321 9.41699 1.06216 9.20808 1.05293C8.99925 1.0437 8.79066 1.07648 8.59465 1.14933C8.39871 1.22218 8.21933 1.33362 8.06722 1.47705C7.91511 1.62047 7.79331 1.79297 7.70907 1.98432L2.87313 12.9218C2.7089 13.2973 2.69877 13.7222 2.8449 14.1051C2.99104 14.488 3.28175 14.7982 3.65438 14.9687C5.77938 15.9687 10.006 17.9609 13.8107 19.7968C27.5294 26.4375 39.1622 25.9921 48.0607 11.5312Z" fill="url(#paint1_linear_1_3160)"/>
</g>
<defs>
<linearGradient id="paint0_linear_1_3160" x1="47.4053" y1="50.5078" x2="16.6788" y2="32.8516" gradientUnits="userSpaceOnUse">
<stop offset="0.18" stop-color="#0052CC"/>
<stop offset="1" stop-color="#2684FF"/>
</linearGradient>
<linearGradient id="paint1_linear_1_3160" x1="-12956.6" y1="36857" x2="-11892.7" y2="38077.8" gradientUnits="userSpaceOnUse">
<stop offset="0.18" stop-color="#0052CC"/>
<stop offset="1" stop-color="#2684FF"/>
</linearGradient>
<clipPath id="clip0_1_3160">
<rect width="50" height="47.6562" fill="white"/>
</clipPath>
</defs>
</svg>

<svg xmlns="http://www.w3.org/2000/svg" width="66.667" height="64" fill="none" viewBox="0 0 50 48"><g clip-path="url(#a)"><path fill="url(#b)" d="M2.522 36.352c-.507.828-1.078 1.789-1.562 2.554a1.562 1.562 0 0 0 .523 2.125l10.157 6.25a1.564 1.564 0 0 0 2.164-.531c.406-.68.93-1.563 1.5-2.508 4.023-6.64 8.07-5.828 15.367-2.343l10.07 4.788a1.56 1.56 0 0 0 2.102-.78l4.836-10.938a1.563 1.563 0 0 0-.782-2.047c-2.124-1-6.351-2.992-10.156-4.828-13.687-6.649-25.32-6.219-34.218 8.258Z"/><path fill="url(#c)" d="M48.06 11.531c.508-.828 1.079-1.789 1.563-2.554a1.563 1.563 0 0 0-.523-2.125L38.943.602a1.563 1.563 0 0 0-2.226.515c-.406.68-.93 1.563-1.5 2.508-4.023 6.64-8.07 5.828-15.367 2.344L9.81 1.203a1.563 1.563 0 0 0-2.1.781L2.872 12.922a1.562 1.562 0 0 0 .781 2.047c2.125 1 6.352 2.992 10.157 4.828 13.718 6.64 25.351 6.195 34.25-8.266Z"/></g><defs><linearGradient id="b" x1="47.405" x2="16.679" y1="50.508" y2="32.852" gradientUnits="userSpaceOnUse"><stop offset=".18" stop-color="#0052CC"/><stop offset="1" stop-color="#2684FF"/></linearGradient><linearGradient id="c" x1="-12956.6" x2="-11892.7" y1="36857" y2="38077.8" gradientUnits="userSpaceOnUse"><stop offset=".18" stop-color="#0052CC"/><stop offset="1" stop-color="#2684FF"/></linearGradient><clipPath id="a"><path fill="#fff" d="M0 0h50v47.656H0z"/></clipPath></defs></svg>
